X:1
T:the Dawn Waltz [F]
C:Don Messer (attr)
R:waltz
M:3/4
L:1/8
Z:Transcribed by Bruce Osborne
F:http://www.ibiblio.org/fiddlers/DASH_DAY.htm 2009-2-25
K:F
(3FG^G \
| A4d2 | c4a2 | A4d2 | (3cdc A2F2 | E2G3E | D2E2C2 | F3 EFd | c6 |
| A4d2 | c4a2 | A4d2 | (3cdc A2F2 | E2G3E | D2E2G2 | F3 EFG | F4 :|
|: F2 \
| C2F2A2 | c2=B2c2 | d4c2 | B6 | C2E2G2 | c2=B2c2 | d4c2 | A6 |
| C2F2A2 | c2=B2c2 | d4c2 | B6 | C2E2G2 | c2B2G2 | F3 EFG | F4 :|
